X:310
T:I Often For My Jennie Strove. (p)1690.PLFD.310
M:6/4
L:1/4
Q:3/4=90
S:Playford, Dancing Master,8th Ed,1690.
O:England
H:1690.
Z:Chris Partington
K:G
g|d<BcA2G|ABcD3|EG2Bd2|efgf2g|
d<BcA2G|ABcD3|EFGBcd|A2GG3:|
|:gabefg|a<fge2d|B^cdefg|e2dd3|
d/B/c/B/A/G/Bd2|FD2EG2|Bcdefg|A2GG3:|
